Adwaita++/actions/22/kdenlive-track-smaller.svg

<svg fill="none" height="22" viewBox="0 0 22 22" width="22" xmlns="http://www.w3.org/2000/svg">
  <g fill="#444">
    <path clip-rule="evenodd" d="m6.2 16h-3.2v3h3.2zm4.2667 0h-3.19998v3h3.19998zm1.0666 0h3.2v3h-3.2zm7.4667 0h-3.2v3h3.2z" fill-rule="evenodd"/>
    <path clip-rule="evenodd" d="m6.2 3h-3.2v3h3.2zm4.2667 0h-3.19998v3h3.19998zm1.0666 0h3.2v3h-3.2zm7.4667 0h-3.2v3h3.2z" fill-rule="evenodd"/>
    <path d="m10.0127 15.0126 4.934-.0312-.0026-.4038-.0003-.0418c0-.0779-.0201-.1548-.063-.2224l-1.9933-3.1066c-.0857-.1379-.2596-.2072-.4331-.2061-.1734.0011-.3464.0726-.4304.2116l-1.9538 3.1315c-.0422.0681-.0614.1453-.0603.2232l.0003.0418z"/>
    <path d="m6.02528 7 4.93392.03118-.0025.40381-.0003.04178c0 .07794-.0201.15484-.0631.2224l-1.99326 3.10663c-.08569.1379-.25959.2072-.43304.2061s-.34647-.0726-.4304-.2116l-1.95387-3.13153c-.04212-.0681-.0614-.14525-.06026-.22319l.00026-.04177z"/>
  </g>
</svg>

<svg xmlns="http://www.w3.org/2000/svg" fill="none" width="22" height="22" viewBox="0 0 22 22">
 <path fill="#444" fill-rule="evenodd" d="M6.2 16H3V19H6.2V16ZM10.4667 16H7.26672V19H10.4667V16ZM11.5333 16H14.7333V19H11.5333V16ZM19 16H15.8V19H19V16Z" clip-rule="evenodd"/>
 <path fill="#444" fill-rule="evenodd" d="M6.2 3H3V6H6.2V3ZM10.4667 3H7.26672V6H10.4667V3ZM11.5333 3H14.7333V6H11.5333V3ZM19 3H15.8V6H19V3Z" clip-rule="evenodd"/>
 <path fill="#444" d="M10.0127 15.0126L14.9467 14.9814L14.9441 14.5776L14.9438 14.5358C14.9438 14.4579 14.9237 14.381 14.8808 14.3134L12.8875 11.2068C12.8018 11.0689 12.6279 10.9996 12.4544 11.0007C12.281 11.0018 12.108 11.0733 12.024 11.2123L10.0702 14.3438C10.028 14.4119 10.0088 14.4891 10.0099 14.567L10.0102 14.6088L10.0127 15.0126Z"/>
 <path fill="#444" d="M6.02528 7L10.9592 7.03118L10.9567 7.43499L10.9564 7.47677C10.9564 7.55471 10.9363 7.63161 10.8933 7.69917L8.90004 10.8058C8.81435 10.9437 8.64045 11.013 8.467 11.0119C8.29355 11.0108 8.12053 10.9393 8.0366 10.8003L6.08273 7.66877C6.04061 7.60067 6.02133 7.52352 6.02247 7.44558L6.02273 7.40381L6.02528 7Z"/>
</svg>
